icons/person.svg

<svg width="48" height="48" viewBox="0 0 48 48" fill="none" xmlns="http://www.w3.org/2000/svg">
<path fill-rule="evenodd" clip-rule="evenodd" d="M24 24C28.4204 24 32 20.4204 32 16C32 11.5796 28.4204 8 24 8C19.5796 8 16 11.5796 16 16C16 20.4204 19.5796 24 24 24ZM34 16C34 21.525 29.525 26 24 26C18.475 26 14 21.525 14 16C14 10.475 18.475 6 24 6C29.525 6 34 10.475 34 16Z" fill="black"/>
<path fill-rule="evenodd" clip-rule="evenodd" d="M9.22348 34.2119C8.22038 35.0211 8 35.6291 8 36V40H40V36C40 35.6291 39.7796 35.0211 38.7765 34.2119C37.7958 33.4207 36.3341 32.6669 34.5622 32.015C31.0199 30.7117 26.7532 30 24 30C21.2468 30 16.9801 30.7117 13.4378 32.015C11.6659 32.6669 10.2042 33.4207 9.22348 34.2119ZM24 28C17.9925 28 6 31.0347 6 36V42H42V36C42 31.0347 30.0075 28 24 28Z" fill="black"/>
</svg>

<svg
  xmlns="http://www.w3.org/2000/svg"
  width="24"
  height="24"
  viewBox="0 0 24 24"
  fill="none"
  stroke="currentColor"
  stroke-width="2"
  stroke-linecap="round"
  stroke-linejoin="round"
>
  <path
    fill-rule="evenodd"
    d="M24 24c4.42 0 8-3.58 8-8s-3.58-8-8-8-8 3.58-8 8 3.58 8 8 8m10-8c0 5.525-4.475 10-10 10s-10-4.475-10-10S18.475 6 24 6s10 4.475 10 10"
    clip-rule="evenodd"
  />
  <path
    fill-rule="evenodd"
    d="M9.223 34.212C8.22 35.022 8 35.629 8 36v4h32v-4c0-.37-.22-.979-1.224-1.788-.98-.791-2.442-1.545-4.214-2.197C31.02 30.712 26.753 30 24 30s-7.02.712-10.562 2.015c-1.772.652-3.234 1.406-4.215 2.197M24 28c-6.007 0-18 3.035-18 8v6h36v-6c0-4.965-11.992-8-18-8"
    clip-rule="evenodd"
  />
</svg>
